src/images/documents/svg/geodata.svg

<svg fill="none" height="120" viewBox="0 0 80 120" width="80" xmlns="http://www.w3.org/2000/svg"><path d="m.999512 119v-118h58.585788l19.4142 19.4142v98.5858z" fill="#fff" stroke="#428542" stroke-width="2"/><path d="m79.9995 20-20-20v20z" fill="#428542"/><path d="m9.99951 78h60v27h-60z" fill="#428542"/><path d="m22.7784 90.8907v3.8739c-.1521.1836-.3871.3827-.7049.5976-.3178.2104-.7273.3916-1.2287.5438-.5013.1522-1.1077.2283-1.8194.2283-.6311 0-1.2063-.103-1.7255-.3089-.5192-.2103-.9668-.5169-1.3427-.9198-.3715-.4028-.658-.8951-.8594-1.477-.2014-.5864-.3021-1.2555-.3021-2.0075v-.6109c0-.752.0962-1.4211.2887-2.0075.1969-.5863.4766-1.0809.8392-1.4837.3625-.4029.7945-.7095 1.2958-.9198.5013-.2104 1.0585-.3156 1.6717-.3156.8504 0 1.5487.1388 2.0947.4163.5461.273.9624.6535 1.2488 1.1413.291.4834.47 1.0384.5371 1.6651h-1.9537c-.0492-.3312-.1432-.6199-.282-.8661-.1387-.2462-.3379-.4387-.5975-.5774-.2552-.1388-.5864-.2081-.9937-.2081-.3357 0-.6356.0693-.8996.2081-.2596.1343-.479.3334-.658.5975s-.3155.5908-.4095.9803c-.094.3894-.141.8414-.141 1.3562v.6243c0 .5103.0492.9624.1477 1.3562.0984.3894.2439.7184.4364.987.1969.2641.4386.4632.7251.5975.2864.1343.6199.2014 1.0003.2014.3178 0 .5819-.0268.7923-.0805.2148-.0537.3871-.1186.5169-.1947.1343-.0806.2373-.1567.3089-.2283v-1.7322h-1.8396v-1.4368zm4.8475 5.2436c-.564 0-1.0698-.0895-1.5174-.2686-.4476-.1835-.828-.4364-1.1413-.7586-.3089-.3223-.5461-.696-.7117-1.1213-.1656-.4296-.2484-.8862-.2484-1.3696v-.2685c0-.5506.0783-1.0541.235-1.5107.1566-.4565.3804-.8526.6714-1.1883.2954-.3357.6534-.5931 1.0742-.7721.4207-.1835.8952-.2753 1.4233-.2753.5147 0 .9713.0851 1.3696.2551.3984.1701.7319.4118 1.0004.7251.273.3134.4789.6893.6177 1.128.1387.4341.2081.9175.2081 1.4502v.8056h-5.7739v-1.289h3.8739v-.1477c0-.2686-.0492-.5081-.1477-.7184-.094-.2149-.2372-.3849-.4297-.5103-.1925-.1253-.4386-.188-.7385-.188-.2552 0-.4745.056-.658.1679s-.3334.2685-.4498.47c-.1119.2014-.197.4386-.2551.7116-.0538.2686-.0806.564-.0806.8863v.2685c0 .2909.0403.5595.1208.8057.0851.2462.2037.4588.3559.6378.1566.179.3446.3178.5639.4163.2238.0984.4767.1477.7587.1477.3491 0 .6736-.0672.9735-.2015.3044-.1387.5662-.3468.7855-.6243l.94 1.0205c-.1522.2193-.3603.4296-.6244.6311-.2596.2014-.5729.367-.94.4968-.367.1253-.7855.188-1.2554.188zm3.7731-3.6926v-.141c0-.5327.0761-1.0228.2283-1.4704.1522-.452.3738-.8437.6647-1.1749s.649-.5886 1.0742-.7721c.4252-.188.9131-.282 1.4636-.282.5506 0 1.0407.094 1.4704.282.4297.1835.79.4409 1.0809.7721.2954.3312.5192.7229.6714 1.1749.1522.4476.2283.9377.2283 1.4704v.141c0 .5281-.0761 1.0182-.2283 1.4703-.1522.4476-.376.8392-.6714 1.1749-.2909.3312-.649.5886-1.0742.7721s-.9131.2753-1.4636.2753c-.5506 0-1.0407-.0918-1.4704-.2753-.4252-.1835-.7855-.4409-1.0809-.7721-.2909-.3357-.5125-.7273-.6647-1.1749-.1522-.4521-.2283-.9422-.2283-1.4703zm1.9336-.141v.141c0 .3043.0269.5885.0806.8526s.1388.4968.2551.6983c.1209.1969.2775.3513.47.4632s.4275.1679.705.1679c.2685 0 .499-.056.6915-.1679s.3469-.2663.4632-.4632c.1164-.2015.2015-.4342.2552-.6983.0582-.2641.0873-.5483.0873-.8526v-.141c0-.2955-.0291-.573-.0873-.8326-.0537-.264-.141-.4968-.2619-.6982-.1163-.2059-.2708-.367-.4632-.4834-.1925-.1164-.4252-.1746-.6983-.1746-.273 0-.5057.0582-.6982.1746-.188.1164-.3424.2775-.4633.4834-.1163.2014-.2014.4342-.2551.6982-.0537.2596-.0806.5371-.0806.8326zm10.4267 2.1148v-8.728h1.947v10.3125h-1.7523zm-4.5923-1.9604v-.141c0-.555.0627-1.0586.188-1.5106.1253-.4566.3088-.8482.5505-1.175.2417-.3267.5394-.5796.893-.7586.3536-.1791.7564-.2686 1.2085-.2686.4252 0 .7967.0895 1.1145.2686.3222.179.5953.4341.8191.7654.2282.3267.4117.7139.5505 1.1615.1387.4431.2395.9287.3021 1.4569v.3088c-.0626.5058-.1634.9757-.3021 1.4099-.1388.4342-.3223.8146-.5505 1.1414-.2238.3222-.4969.5729-.8191.7519-.3223.1791-.6983.2686-1.128.2686-.452 0-.8549-.0918-1.2085-.2753-.3491-.1835-.6445-.4409-.8862-.7721-.2372-.3312-.4185-.7206-.5438-1.1682s-.188-.9355-.188-1.4636zm1.9336-.141v.141c0 .2999.0224.5796.0671.8392.0493.2596.1276.4901.235.6915.1119.197.2551.3514.4297.4633.179.1074.3961.1611.6512.1611.3313 0 .6043-.0738.8191-.2215.2149-.1522.3782-.3603.4901-.6244.1164-.2641.1836-.5685.2015-.9131v-.8795c-.0135-.282-.0537-.5349-.1209-.7587-.0626-.2283-.1566-.423-.282-.5841-.1208-.1611-.273-.2865-.4565-.376-.179-.0895-.3917-.1342-.6378-.1342-.2507 0-.4655.0581-.6446.1745-.179.1119-.3245.2663-.4364.4633-.1074.1969-.188.4297-.2417.6982-.0492.2641-.0738.5505-.0738.8594zm10.0372 2.0477v-3.2361c0-.2327-.038-.4319-.1141-.5975-.0761-.1701-.1947-.3021-.3559-.3961-.1566-.094-.3603-.141-.6109-.141-.2149 0-.4006.038-.5573.1141-.1566.0716-.2775.1768-.3625.3156-.0851.1343-.1276.2931-.1276.4767h-1.9336c0-.3089.0716-.602.2149-.8796.1432-.2775.3513-.5214.6244-.7318.273-.2148.5975-.3827.9735-.5035.3804-.1209.8056-.1813 1.2756-.1813.564 0 1.0653.094 1.5039.282.4387.188.7833.47 1.0339.8459.2552.376.3827.846.3827 1.41v3.1085c0 .3983.0247.7251.0739.9802.0492.2507.1208.47.2148.658v.1141h-1.9537c-.094-.1969-.1656-.4431-.2148-.7385-.0448-.2999-.0672-.5998-.0672-.8997zm.2551-2.7862.0135 1.0943h-1.081c-.2551 0-.4766.0291-.6646.0873s-.3424.141-.4633.2484c-.1208.103-.2104.2238-.2685.3626-.0538.1387-.0806.2909-.0806.4565s.038.3156.1141.4498c.0761.1298.1858.2328.329.3089.1432.0716.3111.1074.5035.1074.291 0 .5439-.0582.7587-.1746.2149-.1163.3805-.2596.4968-.4297.1209-.17.1835-.3312.188-.4834l.5103.8191c-.0716.1836-.1701.3738-.2954.5707-.1209.197-.2753.3827-.4633.5573-.188.1701-.414.311-.6781.4229-.2641.1075-.5774.1612-.9399.1612-.461 0-.8795-.0918-1.2555-.2753-.3715-.188-.6669-.4453-.8863-.7721-.2148-.3312-.3222-.7072-.3222-1.1279 0-.3805.0716-.7184.2148-1.0138.1433-.2954.3536-.5438.6311-.7452.282-.2059.6334-.3604 1.0541-.4633.4207-.1074.9086-.1611 1.4636-.1611zm6.7408-2.84v1.3696h-4.2298v-1.3696zm-3.1824-1.7926h1.9336v6.8683c0 .2103.0268.3715.0806.4834.0581.1119.1432.1902.2551.235.1119.0402.2529.0604.423.0604.1208 0 .2282-.0045.3222-.0134.0985-.0135.1813-.0269.2484-.0403l.0067 1.4233c-.1656.0537-.3446.0962-.5371.1276-.1924.0313-.405.047-.6378.047-.4252 0-.7967-.0694-1.1145-.2082-.3133-.1432-.555-.3715-.7251-.6848s-.2551-.7251-.2551-1.2353zm8.2043 7.4188v-3.2361c0-.2327-.038-.4319-.1141-.5975-.0761-.1701-.1947-.3021-.3558-.3961-.1567-.094-.3603-.141-.611-.141-.2148 0-.4006.038-.5572.1141-.1567.0716-.2776.1768-.3626.3156-.085.1343-.1276.2931-.1276.4767h-1.9335c0-.3089.0716-.602.2148-.8796.1432-.2775.3514-.5214.6244-.7318.273-.2148.5975-.3827.9735-.5035.3804-.1209.8057-.1813 1.2756-.1813.564 0 1.0653.094 1.5039.282.4387.188.7833.47 1.034.8459.2551.376.3827.846.3827 1.41v3.1085c0 .3983.0246.7251.0738.9802.0492.2507.1209.47.2149.658v.1141h-1.9538c-.094-.1969-.1656-.4431-.2148-.7385-.0448-.2999-.0672-.5998-.0672-.8997zm.2552-2.7862.0134 1.0943h-1.0809c-.2552 0-.4767.0291-.6647.0873s-.3424.141-.4633.2484c-.1208.103-.2103.2238-.2685.3626-.0537.1387-.0806.2909-.0806.4565s.0381.3156.1141.4498c.0761.1298.1858.2328.329.3089.1433.0716.3111.1074.5036.1074.2909 0 .5438-.0582.7586-.1746.2149-.1163.3805-.2596.4969-.4297.1208-.17.1835-.3312.1879-.4834l.5103.8191c-.0716.1836-.1701.3738-.2954.5707-.1209.197-.2753.3827-.4633.5573-.188.1701-.414.311-.6781.4229-.264.1075-.5774.1612-.9399.1612-.461 0-.8795-.0918-1.2555-.2753-.3715-.188-.6669-.4453-.8862-.7721-.2149-.3312-.3223-.7072-.3223-1.1279 0-.3805.0716-.7184.2148-1.0138.1433-.2954.3536-.5438.6312-.7452.2819-.2059.6333-.3604 1.054-.4633.4208-.1074.9086-.1611 1.4637-.1611z" fill="#fff"/><path d="m40.0007 20.8333c-9.2143 0-16.6667 7.4004-16.6667 16.5504 0 12.4128 16.6667 30.7364 16.6667 30.7364s16.6666-18.3236 16.6666-30.7364c0-9.15-7.4524-16.5504-16.6666-16.5504zm0 22.4612c-3.2858 0-5.9524-2.648-5.9524-5.9108s2.6666-5.9109 5.9524-5.9109c3.2857 0 5.9523 2.6481 5.9523 5.9109s-2.6666 5.9108-5.9523 5.9108z" fill="#428542"/></svg>

<svg width="80" height="120" viewBox="0 0 80 120" fill="none" xmlns="http://www.w3.org/2000/svg">
<path d="M1 119V1H59.5858L79 20.4142V119H1Z" fill="white" stroke="#0065BD" stroke-width="2"/>
<path d="M80 20L60 0V20H80Z" fill="#0065BD"/>
<rect x="10" y="78" width="60" height="27" fill="#0065BD"/>
<path d="M22.7789 90.8907V94.7646C22.6267 94.9482 22.3918 95.1473 22.074 95.3622C21.7562 95.5726 21.3466 95.7538 20.8453 95.906C20.344 96.0582 19.7375 96.1343 19.0259 96.1343C18.3948 96.1343 17.8196 96.0313 17.3004 95.8254C16.7812 95.6151 16.3336 95.3085 15.9576 94.9056C15.5861 94.5028 15.2997 94.0105 15.0983 93.4286C14.8969 92.8422 14.7961 92.1731 14.7961 91.4211V90.8102C14.7961 90.0582 14.8924 89.3891 15.0848 88.8027C15.2818 88.2164 15.5615 87.7218 15.9241 87.319C16.2866 86.9161 16.7185 86.6095 17.2198 86.3992C17.7212 86.1888 18.2784 86.0836 18.8916 86.0836C19.742 86.0836 20.4403 86.2224 20.9863 86.4999C21.5324 86.7729 21.9486 87.1534 22.2351 87.6412C22.526 88.1246 22.7051 88.6796 22.7722 89.3063H20.8185C20.7692 88.9751 20.6753 88.6864 20.5365 88.4402C20.3977 88.194 20.1986 88.0015 19.939 87.8628C19.6838 87.724 19.3526 87.6547 18.9453 87.6547C18.6096 87.6547 18.3097 87.724 18.0457 87.8628C17.7861 87.9971 17.5667 88.1962 17.3877 88.4603C17.2087 88.7244 17.0721 89.0511 16.9781 89.4406C16.8842 89.83 16.8372 90.282 16.8372 90.7968V91.4211C16.8372 91.9314 16.8864 92.3835 16.9849 92.7773C17.0833 93.1667 17.2288 93.4957 17.4213 93.7643C17.6182 94.0284 17.8599 94.2275 18.1464 94.3618C18.4328 94.4961 18.7663 94.5632 19.1467 94.5632C19.4645 94.5632 19.7286 94.5364 19.939 94.4827C20.1538 94.429 20.3261 94.3641 20.4559 94.288C20.5902 94.2074 20.6932 94.1313 20.7648 94.0597V92.3275H18.9252V90.8907H22.7789ZM27.6263 96.1343C27.0624 96.1343 26.5566 96.0448 26.109 95.8657C25.6614 95.6822 25.281 95.4293 24.9677 95.1071C24.6588 94.7848 24.4216 94.4111 24.256 93.9858C24.0904 93.5562 24.0076 93.0996 24.0076 92.6162V92.3477C24.0076 91.7971 24.0859 91.2936 24.2426 90.837C24.3992 90.3805 24.623 89.9844 24.9139 89.6487C25.2094 89.313 25.5674 89.0556 25.9882 88.8766C26.4089 88.6931 26.8833 88.6013 27.4115 88.6013C27.9262 88.6013 28.3828 88.6864 28.7811 88.8564C29.1795 89.0265 29.5129 89.2682 29.7815 89.5815C30.0545 89.8949 30.2604 90.2708 30.3992 90.7095C30.5379 91.1436 30.6073 91.627 30.6073 92.1597V92.9653H24.8334V91.6763H28.7073V91.5286C28.7073 91.26 28.658 91.0205 28.5596 90.8102C28.4656 90.5953 28.3223 90.4253 28.1299 90.2999C27.9374 90.1746 27.6912 90.1119 27.3914 90.1119C27.1362 90.1119 26.9169 90.1679 26.7334 90.2798C26.5499 90.3917 26.3999 90.5483 26.2836 90.7498C26.1717 90.9512 26.0866 91.1884 26.0284 91.4614C25.9747 91.73 25.9479 92.0254 25.9479 92.3477V92.6162C25.9479 92.9071 25.9882 93.1757 26.0687 93.4219C26.1538 93.6681 26.2724 93.8807 26.4246 94.0597C26.5812 94.2387 26.7692 94.3775 26.9885 94.476C27.2123 94.5744 27.4652 94.6237 27.7472 94.6237C28.0963 94.6237 28.4208 94.5565 28.7207 94.4222C29.0251 94.2835 29.2869 94.0754 29.5062 93.7979L30.4462 94.8184C30.294 95.0377 30.0859 95.248 29.8218 95.4495C29.5622 95.6509 29.2489 95.8165 28.8818 95.9463C28.5148 96.0716 28.0963 96.1343 27.6263 96.1343ZM31.3995 92.4417V92.3007C31.3995 91.768 31.4756 91.2779 31.6278 90.8303C31.78 90.3783 32.0015 89.9866 32.2925 89.6554C32.5834 89.3242 32.9415 89.0668 33.3667 88.8833C33.7919 88.6953 34.2798 88.6013 34.8303 88.6013C35.3809 88.6013 35.871 88.6953 36.3007 88.8833C36.7303 89.0668 37.0907 89.3242 37.3816 89.6554C37.677 89.9866 37.9008 90.3783 38.053 90.8303C38.2052 91.2779 38.2812 91.768 38.2812 92.3007V92.4417C38.2812 92.9698 38.2052 93.4599 38.053 93.912C37.9008 94.3596 37.677 94.7512 37.3816 95.0869C37.0907 95.4181 36.7326 95.6755 36.3074 95.859C35.8822 96.0425 35.3943 96.1343 34.8438 96.1343C34.2932 96.1343 33.8031 96.0425 33.3734 95.859C32.9482 95.6755 32.5879 95.4181 32.2925 95.0869C32.0015 94.7512 31.78 94.3596 31.6278 93.912C31.4756 93.4599 31.3995 92.9698 31.3995 92.4417ZM33.3331 92.3007V92.4417C33.3331 92.746 33.36 93.0302 33.4137 93.2943C33.4674 93.5584 33.5524 93.7911 33.6688 93.9926C33.7897 94.1895 33.9463 94.3439 34.1388 94.4558C34.3313 94.5677 34.5662 94.6237 34.8438 94.6237C35.1123 94.6237 35.3428 94.5677 35.5353 94.4558C35.7277 94.3439 35.8822 94.1895 35.9985 93.9926C36.1149 93.7911 36.2 93.5584 36.2537 93.2943C36.3118 93.0302 36.3409 92.746 36.3409 92.4417V92.3007C36.3409 92.0052 36.3118 91.7277 36.2537 91.4681C36.2 91.2041 36.1127 90.9713 35.9918 90.7699C35.8754 90.564 35.721 90.4029 35.5286 90.2865C35.3361 90.1701 35.1034 90.1119 34.8303 90.1119C34.5573 90.1119 34.3245 90.1701 34.1321 90.2865C33.9441 90.4029 33.7897 90.564 33.6688 90.7699C33.5524 90.9713 33.4674 91.2041 33.4137 91.4681C33.36 91.7277 33.3331 92.0052 33.3331 92.3007ZM43.7598 94.4155V85.6875H45.7068V96H43.9545L43.7598 94.4155ZM39.1675 92.4551V92.3141C39.1675 91.7591 39.2301 91.2555 39.3555 90.8035C39.4808 90.3469 39.6643 89.9553 39.906 89.6285C40.1477 89.3018 40.4454 89.0489 40.799 88.8699C41.1525 88.6908 41.5554 88.6013 42.0074 88.6013C42.4327 88.6013 42.8042 88.6908 43.1219 88.8699C43.4442 89.0489 43.7172 89.304 43.941 89.6353C44.1693 89.962 44.3528 90.3492 44.4916 90.7968C44.6303 91.2399 44.731 91.7255 44.7937 92.2537V92.5625C44.731 93.0683 44.6303 93.5382 44.4916 93.9724C44.3528 94.4066 44.1693 94.787 43.941 95.1138C43.7172 95.436 43.4442 95.6867 43.1219 95.8657C42.7997 96.0448 42.4237 96.1343 41.994 96.1343C41.542 96.1343 41.1391 96.0425 40.7855 95.859C40.4364 95.6755 40.141 95.4181 39.8993 95.0869C39.6621 94.7557 39.4808 94.3663 39.3555 93.9187C39.2301 93.4711 39.1675 92.9832 39.1675 92.4551ZM41.1011 92.3141V92.4551C41.1011 92.755 41.1235 93.0347 41.1682 93.2943C41.2174 93.5539 41.2958 93.7844 41.4032 93.9858C41.5151 94.1828 41.6583 94.3372 41.8329 94.4491C42.0119 94.5565 42.229 94.6102 42.4841 94.6102C42.8153 94.6102 43.0884 94.5364 43.3032 94.3887C43.5181 94.2365 43.6814 94.0284 43.7933 93.7643C43.9097 93.5002 43.9768 93.1958 43.9948 92.8512V91.9717C43.9813 91.6897 43.941 91.4368 43.8739 91.213C43.8112 90.9847 43.7172 90.79 43.5919 90.6289C43.4711 90.4678 43.3189 90.3424 43.1354 90.2529C42.9563 90.1634 42.7437 90.1187 42.4976 90.1187C42.2469 90.1187 42.0321 90.1768 41.853 90.2932C41.674 90.4051 41.5285 90.5595 41.4166 90.7565C41.3092 90.9534 41.2286 91.1862 41.1749 91.4547C41.1257 91.7188 41.1011 92.0052 41.1011 92.3141ZM51.1383 94.3618V91.1257C51.1383 90.893 51.1003 90.6938 51.0242 90.5282C50.9481 90.3581 50.8295 90.2261 50.6683 90.1321C50.5117 90.0381 50.308 89.9911 50.0574 89.9911C49.8425 89.9911 49.6568 90.0291 49.5001 90.1052C49.3435 90.1768 49.2226 90.282 49.1376 90.4208C49.0525 90.5551 49.01 90.7139 49.01 90.8975H47.0764C47.0764 90.5886 47.148 90.2955 47.2913 90.0179C47.4345 89.7404 47.6426 89.4965 47.9156 89.2861C48.1887 89.0713 48.5132 88.9034 48.8892 88.7826C49.2696 88.6617 49.6948 88.6013 50.1648 88.6013C50.7288 88.6013 51.2301 88.6953 51.6687 88.8833C52.1073 89.0713 52.452 89.3533 52.7026 89.7292C52.9578 90.1052 53.0853 90.5752 53.0853 91.1392V94.2477C53.0853 94.646 53.1099 94.9728 53.1592 95.2279C53.2084 95.4786 53.28 95.6979 53.374 95.8859V96H51.4203C51.3263 95.8031 51.2547 95.5569 51.2054 95.2615C51.1607 94.9616 51.1383 94.6617 51.1383 94.3618ZM51.3934 91.5756L51.4069 92.6699H50.3259C50.0708 92.6699 49.8492 92.699 49.6613 92.7572C49.4733 92.8154 49.3188 92.8982 49.198 93.0056C49.0771 93.1086 48.9876 93.2294 48.9294 93.3682C48.8757 93.5069 48.8489 93.6591 48.8489 93.8247C48.8489 93.9903 48.8869 94.1403 48.963 94.2745C49.0391 94.4043 49.1488 94.5073 49.292 94.5834C49.4352 94.655 49.6031 94.6908 49.7955 94.6908C50.0865 94.6908 50.3394 94.6326 50.5542 94.5162C50.769 94.3999 50.9347 94.2566 51.051 94.0865C51.1719 93.9165 51.2345 93.7553 51.239 93.6031L51.7493 94.4222C51.6777 94.6058 51.5792 94.796 51.4539 94.9929C51.333 95.1899 51.1786 95.3756 50.9906 95.5502C50.8026 95.7203 50.5766 95.8612 50.3125 95.9731C50.0484 96.0806 49.7351 96.1343 49.3726 96.1343C48.9115 96.1343 48.493 96.0425 48.1171 95.859C47.7456 95.671 47.4502 95.4137 47.2308 95.0869C47.016 94.7557 46.9086 94.3797 46.9086 93.959C46.9086 93.5785 46.9802 93.2406 47.1234 92.9452C47.2666 92.6498 47.477 92.4014 47.7545 92.2C48.0365 91.9941 48.3879 91.8396 48.8086 91.7367C49.2293 91.6293 49.7172 91.5756 50.2722 91.5756H51.3934ZM58.1342 88.7356V90.1052H53.9044V88.7356H58.1342ZM54.9518 86.943H56.8854V93.8113C56.8854 94.0216 56.9122 94.1828 56.9659 94.2947C57.0241 94.4066 57.1092 94.4849 57.2211 94.5297C57.333 94.5699 57.474 94.5901 57.644 94.5901C57.7649 94.5901 57.8723 94.5856 57.9663 94.5767C58.0648 94.5632 58.1476 94.5498 58.2147 94.5364L58.2214 95.9597C58.0558 96.0134 57.8768 96.0559 57.6843 96.0873C57.4919 96.1186 57.2793 96.1343 57.0465 96.1343C56.6213 96.1343 56.2498 96.0649 55.932 95.9261C55.6187 95.7829 55.377 95.5546 55.2069 95.2413C55.0368 94.928 54.9518 94.5162 54.9518 94.006V86.943ZM63.1561 94.3618V91.1257C63.1561 90.893 63.1181 90.6938 63.042 90.5282C62.9659 90.3581 62.8473 90.2261 62.6862 90.1321C62.5295 90.0381 62.3258 89.9911 62.0752 89.9911C61.8604 89.9911 61.6746 90.0291 61.5179 90.1052C61.3613 90.1768 61.2404 90.282 61.1554 90.4208C61.0704 90.5551 61.0278 90.7139 61.0278 90.8975H59.0942C59.0942 90.5886 59.1659 90.2955 59.3091 90.0179C59.4523 89.7404 59.6604 89.4965 59.9335 89.2861C60.2065 89.0713 60.531 88.9034 60.907 88.7826C61.2874 88.6617 61.7126 88.6013 62.1826 88.6013C62.7466 88.6013 63.2479 88.6953 63.6865 88.8833C64.1252 89.0713 64.4698 89.3533 64.7205 89.7292C64.9756 90.1052 65.1031 90.5752 65.1031 91.1392V94.2477C65.1031 94.646 65.1278 94.9728 65.177 95.2279C65.2262 95.4786 65.2979 95.6979 65.3918 95.8859V96H63.4381C63.3441 95.8031 63.2725 95.5569 63.2233 95.2615C63.1785 94.9616 63.1561 94.6617 63.1561 94.3618ZM63.4113 91.5756L63.4247 92.6699H62.3438C62.0886 92.6699 61.8671 92.699 61.6791 92.7572C61.4911 92.8154 61.3367 92.8982 61.2158 93.0056C61.095 93.1086 61.0055 93.2294 60.9473 93.3682C60.8936 93.5069 60.8667 93.6591 60.8667 93.8247C60.8667 93.9903 60.9047 94.1403 60.9808 94.2745C61.0569 94.4043 61.1666 94.5073 61.3098 94.5834C61.453 94.655 61.6209 94.6908 61.8134 94.6908C62.1043 94.6908 62.3572 94.6326 62.572 94.5162C62.7869 94.3999 62.9525 94.2566 63.0688 94.0865C63.1897 93.9165 63.2524 93.7553 63.2568 93.6031L63.7671 94.4222C63.6955 94.6058 63.597 94.796 63.4717 94.9929C63.3508 95.1899 63.1964 95.3756 63.0084 95.5502C62.8204 95.7203 62.5944 95.8612 62.3303 95.9731C62.0662 96.0806 61.7529 96.1343 61.3904 96.1343C60.9294 96.1343 60.5109 96.0425 60.1349 95.859C59.7634 95.671 59.468 95.4137 59.2487 95.0869C59.0338 94.7557 58.9264 94.3797 58.9264 93.959C58.9264 93.5785 58.998 93.2406 59.1412 92.9452C59.2845 92.6498 59.4948 92.4014 59.7723 92.2C60.0543 91.9941 60.4057 91.8396 60.8264 91.7367C61.2472 91.6293 61.735 91.5756 62.29 91.5756H63.4113Z" fill="white"/>
<path d="M40.0011 20.8333C30.7869 20.8333 23.3345 28.2337 23.3345 37.3837C23.3345 49.7965 40.0011 68.1201 40.0011 68.1201C40.0011 68.1201 56.6678 49.7965 56.6678 37.3837C56.6678 28.2337 49.2154 20.8333 40.0011 20.8333ZM40.0011 43.2945C36.7154 43.2945 34.0488 40.6465 34.0488 37.3837C34.0488 34.1209 36.7154 31.4728 40.0011 31.4728C43.2869 31.4728 45.9535 34.1209 45.9535 37.3837C45.9535 40.6465 43.2869 43.2945 40.0011 43.2945Z" fill="#0065BD"/>
</svg>
